X: 31959
T: Pearl, The
R: reel
M: 4/4
K: Dmajor
DE|F4 E3 D|D4 d2e2|f4 A3 F|A4 B2 c2|d4 c3 A|B4 A2 DE|
F4 E3 D|B,4 D2 E2|F4 E3 D|D4 d2e2|f4 A3 F|A4 B2 c2|d4 c3 A|
B4 A2 DE|F4 E3 D|B,4 d2 e2|f4 A3 F|A4 B2 c2|d4 D3 E|
F4 E3 D|D2 B4 A2|F4 D2 E2|F4 E3 D|B,4 d2 e2|f4 A3 F|
A4 B2 c2|d4 D3 E|F4 E3 D|D2 B4 A2|F4 D2 E2|F4 E3 D|B,6||

